X: 20551
T: The GRACES
C:
%R: reel
B: Elias Howe "The Musician's Companion" 1843 p.55 #1
S: http://imslp.org/wiki/The_Musician's_Companion_(Howe,_Elias)
Z: 2015 John Chambers <jc:trillian.mit.edu>
N: pickup rest added to 2nd strain to fix the rhythm.
M: C|
L: 1/8
K: G
% - - - - - - - - - - - - - - - - - - - - - - - - -
D2 |\
G2DG B2GB | d2Bd edef | gfed egfa | g2G2 G2gf |\
g2G2 G2D2 | EGFA GFED | CEB,D A,CG,B, | D2D2 D2 :|
|: z2 |\
A3B c2BA | Bdge edd2 | A3B c2BA | Bdge edd2 |\
G3A BGBd | egfa g2-g2 | FGAF DFAF | G2G2 G2 :|
|: D2 |\
GABA GFED | EFGF EDCB, | CDED CB,A,G, | D2D2 D2D2 |\
GABA GFED | EFGF EDCB, | CDED CB,A,G, | D2D2D2 :|
|: Bc |\
d3c B2G2 | G2E2E2C2 | e3d c2A2 | A2G2 F2D2 |\
d3c BGBd | egfa g2-g2 | FGAF DFAF | G2G2 G2 :|
% - - - - - - - - - - - - - - - - - - - - - - - - -

%%sep 1 1 500

